src/components/content/Icon/functional/search.svg

<svg width="100" height="100" viewBox="0 0 100 100" fill="none" xmlns="http://www.w3.org/2000/svg">
<path d="M71.9202 70.2919L57.3022 55.6779C59.7322 52.7379 61.1942 48.9699 61.1942 44.8659C61.1942 40.9959 59.8582 37.2079 57.4322 34.1999C57.0862 33.7699 56.4562 33.7019 56.0262 34.0499C55.5962 34.3979 55.5282 35.0259 55.8762 35.4559C58.0462 38.1479 59.1942 41.3999 59.1942 44.8659C59.1942 53.1359 52.4662 59.8639 44.1962 59.8639C35.9262 59.8639 29.1982 53.1359 29.1982 44.8659C29.1982 36.5959 35.9262 29.8679 44.1962 29.8679C46.9262 29.8679 49.6002 30.6079 51.9262 32.0099C52.4002 32.2959 53.0142 32.1419 53.2982 31.6699C53.5842 31.1959 53.4302 30.5819 52.9582 30.2979C50.3202 28.7079 47.2922 27.8679 44.1962 27.8679C34.8242 27.8679 27.1982 35.4939 27.1982 44.8659C27.1982 54.2379 34.8242 61.8639 44.1962 61.8639C48.7462 61.8639 52.8822 60.0619 55.9362 57.1399L70.5062 71.7059C70.7022 71.9019 70.9582 71.9979 71.2142 71.9979C71.4702 71.9979 71.7262 71.8999 71.9222 71.7059C72.1096 71.5183 72.2148 71.264 72.2148 70.9989C72.2148 70.7338 72.1096 70.4795 71.9222 70.2919H71.9202Z" fill="#0B301A"/>
</svg>

<svg xmlns="http://www.w3.org/2000/svg" width="100" height="100" fill="none" viewBox="0 0 100 100"><path fill="#0b301a" d="M71.92 70.292 57.302 55.678a16.92 16.92 0 0 0 3.892-10.812c0-3.87-1.336-7.658-3.762-10.666a1 1 0 0 0-1.406-.15 1 1 0 0 0-.15 1.406 14.84 14.84 0 0 1 3.318 9.41c0 8.27-6.728 14.998-14.998 14.998s-14.998-6.728-14.998-14.998 6.728-14.998 14.998-14.998c2.73 0 5.404.74 7.73 2.142a.999.999 0 1 0 1.032-1.712 16.97 16.97 0 0 0-8.762-2.43c-9.372 0-16.998 7.626-16.998 16.998s7.626 16.998 16.998 16.998c4.55 0 8.686-1.802 11.74-4.724l14.57 14.566a1.004 1.004 0 0 0 1.416 0 1 1 0 0 0 0-1.414z"/></svg>
